X: 25824
T: Master Crowley's
R: reel
M: 4/4
K: Ddorian
|:A,D ~D2 A,DFD|ECB,C G,CEC|A,D ~D2 A,DFD|EGcG EDDC|
A,D ~D2 A,DFD|ECB,C G,CEC|A,D ~D2 A,DFD|1 EGcG EDDC:|2 EGcG EDDE||
|:Ag^fg egdg|ecBc Gcec|Ag^fg egdB|cGEG FDE^C|
Dg^fg egdg|ecBc e^fgA|^FGAB cGEG|cAGE {F}ED DB:|
|:Ad^fd Adfd|ecBc Gcec|Ad^fd Adfa|gebe ^fde^c|
Ad^fd Adfd|ecBc e^fgA|^FGAB cGEG|1 cAGE {F}ED DB:|2 cAGE {F}ED DC||

